src/icons/scalable/actions/horizontal-arrows-disabled-symbolic.svg

<?xml version="1.0" encoding="UTF-8"?>
<svg xmlns="http://www.w3.org/2000/svg" height="16px" viewBox="0 0 16 16" width="16px"><g fill="#222222"><path d="m 11.011719 1 c -0.253907 -0.003906 -0.511719 0.089844 -0.710938 0.28125 c -0.394531 0.386719 -0.402343 1.019531 -0.019531 1.417969 l 1.269531 1.300781 h -4.550781 c -0.550781 0 -1 0.449219 -1 1 s 0.449219 1 1 1 h 4.550781 l -1.269531 1.300781 c -0.382812 0.398438 -0.375 1.03125 0.019531 1.417969 c 0.398438 0.382812 1.03125 0.375 1.414063 -0.019531 l 2.917968 -3 c 0.378907 -0.390625 0.378907 -1.007813 0 -1.394531 l -2.917968 -3 c -0.191406 -0.199219 -0.445313 -0.300782 -0.703125 -0.304688 z m -6.027344 6 c -0.253906 0.003906 -0.507813 0.105469 -0.703125 0.300781 l -2.917969 3 c -0.375 0.390625 -0.375 1.007813 0 1.398438 l 2.917969 3 c 0.386719 0.394531 1.019531 0.402343 1.414062 0.015625 c 0.398438 -0.382813 0.40625 -1.015625 0.019532 -1.414063 l -1.265625 -1.300781 h 4.550781 c 0.550781 0 1 -0.449219 1 -1 s -0.449219 -1 -1 -1 h -4.550781 l 1.265625 -1.300781 c 0.386718 -0.398438 0.378906 -1.03125 -0.019532 -1.417969 c -0.195312 -0.191406 -0.453124 -0.285156 -0.710937 -0.28125 z m 0 0" fill-opacity="0.34902" fill-rule="evenodd"/><path d="m 11 11 h 1.375 l 1.125 1.09375 l 1.09375 -1.09375 h 1.40625 v 1.46875 l -1.09375 1.0625 l 1.09375 1.0625 v 1.40625 h -1.4375 l -1.0625 -1.0625 l -1.0625 1.0625 h -1.4375 v -1.40625 l 1.0625 -1.0625 l -1.0625 -1.0625 z m 0 0"/></g></svg>

<svg xmlns="http://www.w3.org/2000/svg" width="16" height="16" viewBox="0 0 16 16"><g fill="#222"><path fill-opacity=".349" fill-rule="evenodd" d="M11.012 1a1 1 0 0 0-.711.281 1.01 1.01 0 0 0-.02 1.418L11.551 4H7c-.55 0-1 .45-1 1s.45 1 1 1h4.55l-1.269 1.3a1.01 1.01 0 0 0 .02 1.419 1.003 1.003 0 0 0 1.414-.02l2.918-3a.997.997 0 0 0 0-1.394l-2.918-3A1 1 0 0 0 11.012 1M4.984 7a1.02 1.02 0 0 0-.703.3l-2.918 3a1.01 1.01 0 0 0 0 1.4l2.918 3a1 1 0 0 0 1.414.015.996.996 0 0 0 .02-1.414L4.449 12H9c.55 0 1-.45 1-1s-.45-1-1-1H4.45l1.265-1.3a1 1 0 0 0-.73-1.7m0 0"/><path d="M11 11h1.375l1.125 1.094L14.594 11H16v1.469l-1.094 1.062L16 14.594V16h-1.437L13.5 14.938 12.438 16H11v-1.406l1.063-1.063L11 12.47zm0 0"/></g></svg>
